icons/stackoverflow.svg

<svg width="24" height="24" viewBox="0 0 24 24" fill="none" xmlns="http://www.w3.org/2000/svg">
<path fill-rule="evenodd" clip-rule="evenodd" d="M15.135 2.50751C14.9991 2.27809 14.7788 2.11101 14.5212 2.04204C14.2637 1.97307 13.9893 2.0077 13.757 2.13851C13.6431 2.20256 13.5432 2.28875 13.463 2.39201C13.3829 2.49527 13.3243 2.6135 13.2906 2.73975C13.2568 2.86601 13.2487 2.99773 13.2666 3.12718C13.2846 3.25662 13.3282 3.38118 13.395 3.49351L17.614 10.6595L11.7 4.86151C11.5088 4.67556 11.2527 4.57152 10.986 4.57152C10.7193 4.57152 10.4632 4.67556 10.272 4.86151C10.1785 4.95254 10.1042 5.06138 10.0534 5.18161C10.0027 5.30184 9.97656 5.43101 9.97656 5.56151C9.97656 5.692 10.0027 5.82117 10.0534 5.9414C10.1042 6.06163 10.1785 6.17047 10.272 6.26151L16.266 12.1405L9.02 8.03751C8.78766 7.9067 8.51333 7.87207 8.25576 7.94104C7.9982 8.01001 7.77789 8.17709 7.642 8.40651C7.57542 8.51885 7.53196 8.64338 7.51419 8.77276C7.49641 8.90214 7.50468 9.03377 7.53849 9.15991C7.57231 9.28606 7.631 9.40417 7.71111 9.50731C7.79123 9.61044 7.89115 9.69653 8.005 9.76051L15.437 13.9695L7.263 11.8205C7.00568 11.7534 6.73228 11.7902 6.50192 11.9231C6.27155 12.056 6.10275 12.2742 6.032 12.5305C5.997 12.6568 5.98746 12.7888 6.00395 12.9188C6.02044 13.0487 6.06263 13.1742 6.12805 13.2877C6.19347 13.4012 6.28083 13.5006 6.38503 13.5801C6.48923 13.6595 6.6082 13.7175 6.735 13.7505L15.3 16.0005H7C6.73478 16.0005 6.48043 16.1059 6.29289 16.2934C6.10536 16.4809 6 16.7353 6 17.0005C6 17.2657 6.10536 17.5201 6.29289 17.7076C6.48043 17.8951 6.73478 18.0005 7 18.0005H17C17.2076 18.0003 17.41 17.9356 17.5791 17.8152C17.7482 17.6949 17.8757 17.5249 17.9438 17.3288C18.012 17.1327 18.0174 16.9203 17.9594 16.721C17.9014 16.5217 17.7827 16.3454 17.62 16.2165C17.796 16.0865 17.93 15.8995 17.992 15.6735C18.0275 15.5445 18.0364 15.4097 18.0182 15.2771C18 15.1446 17.955 15.0171 17.886 14.9025C18.0893 14.8184 18.2596 14.6702 18.371 14.4805C18.4368 14.3698 18.4801 14.2471 18.4985 14.1197C18.5168 13.9922 18.5099 13.8623 18.478 13.7375C18.683 13.7075 18.881 13.6135 19.039 13.4585C19.218 13.2843 19.3236 13.0481 19.334 12.7985C19.544 12.8265 19.764 12.7885 19.961 12.6765C20.0749 12.6125 20.1748 12.5264 20.2549 12.4233C20.335 12.3202 20.3937 12.2021 20.4275 12.0759C20.4613 11.9498 20.4696 11.8181 20.4518 11.6888C20.434 11.5594 20.3906 11.4349 20.324 11.3225L15.134 2.50751H15.135ZM4 17.0005C4 16.7353 3.89464 16.4809 3.70711 16.2934C3.51957 16.1059 3.26522 16.0005 3 16.0005C2.73478 16.0005 2.48043 16.1059 2.29289 16.2934C2.10536 16.4809 2 16.7353 2 17.0005V18.0005C2 19.0614 2.42143 20.0788 3.17157 20.8289C3.92172 21.5791 4.93913 22.0005 6 22.0005H18C19.0609 22.0005 20.0783 21.5791 20.8284 20.8289C21.5786 20.0788 22 19.0614 22 18.0005V17.0005C22 16.7353 21.8946 16.4809 21.7071 16.2934C21.5196 16.1059 21.2652 16.0005 21 16.0005C20.7348 16.0005 20.4804 16.1059 20.2929 16.2934C20.1054 16.4809 20 16.7353 20 17.0005V18.0005C20 18.5309 19.7893 19.0396 19.4142 19.4147C19.0391 19.7898 18.5304 20.0005 18 20.0005H6C5.46957 20.0005 4.96086 19.7898 4.58579 19.4147C4.21071 19.0396 4 18.5309 4 18.0005V17.0005Z" fill="black"/>
</svg>

<svg
  width="24"
  height="24"
  viewBox="0 0 24 24"
  xmlns="http://www.w3.org/2000/svg"
>
  <path
    fill-rule="evenodd"
    clip-rule="evenodd"
    d="M15.135 2.508a1.02 1.02 0 0 0-1.378-.37.981.981 0 0 0-.362 1.356l4.219 7.165L11.7 4.862a1.024 1.024 0 0 0-1.428 0 .978.978 0 0 0 0 1.4l5.994 5.878L9.02 8.038a1.02 1.02 0 0 0-1.378.369.98.98 0 0 0 .363 1.354l7.432 4.209-8.174-2.15a1.012 1.012 0 0 0-1.26 1.099.988.988 0 0 0 .732.832L15.3 16H7a1 1 0 0 0 0 2h10a1 1 0 0 0 .62-1.785 1.001 1.001 0 0 0 .266-1.314 1.01 1.01 0 0 0 .613-.782.98.98 0 0 0-.021-.382 1.01 1.01 0 0 0 .561-.28.978.978 0 0 0 .295-.66.998.998 0 0 0 1.093-.722.98.98 0 0 0-.103-.754l-5.19-8.814h.001zM4 17a1 1 0 1 0-2 0v1a4 4 0 0 0 4 4h12a4 4 0 0 0 4-4v-1a1 1 0 0 0-2 0v1a2 2 0 0 1-2 2H6a2 2 0 0 1-2-2v-1z"
  />
</svg>
